X: 392
T: Lady Portmores Reel
%R: reel
Z: 2014 John Chambers <jc:trillian.mit.edu>
B: Preston "Twenty four Country Dances for the Year 1800" p.176 #2
F: http://www.vwml.org/browse/browse-collections-dance-tune-books/browse-prestons1800# 2014-8-10
N: Added missing dot to last note of 1st strain.
M: C|
L: 1/8
K: F
B |\
A/B/c fc dcfc | A/B/c fc dcdf |\
A/B/c fd cf/g/ ag | fdcA F3 :|
|: A/B/ |\
cFAF cFBd | cF d/c/B/A/ G2AB |\
cFAF faga | fdcA F3 :|
% - - - - - - - - - - - - - - - - - - - - - - - - -
%%begintext align
%% 1st Lady Hey with the 2d Gent: and her Partner .|
%% 1st Gent: Hey with his Partner and 2d Gent. :|
%% lead down two Cu: up again and cast off :|:
%%endtext
% - - - - - - - - - - - - - - - - - - - - - - - - -

%%sep 1 1 500
%%sep 1 1 500
